X: 08243
M: 2/4
L: 1/8
K: G
V: 1 clef=treble middle=B
g |\
dBBG | cAAF | Ggfe | (e2d)g |\
dBBG | cAAF | G2A2 | G3 :|\
|:\
|:\
V: 2 clef=bass middle=d
z |\
[b2g2][b2g2] | [c'2a2][c'2a2] | [b2g2][a2d2] | [b2g2][bg] :|
|:\
dfaf | dgbg | dfaf | dgbg |\
dfaf | dgbg | d2f2 | g2G2 :|
|:\
gd'bd' | ad'c'd' | fd'ad' | gd'bd' |\
gd'bd' | cgeg | d2f2 | g2G :|

